apps/web/public/icons/why-remote.svg

<?xml version="1.0" encoding="UTF-8"?>
<svg xmlns="http://www.w3.org/2000/svg" xmlns:xlink="http://www.w3.org/1999/xlink" width="278px" height="200px" viewBox="0 0 278 200" version="1.1">
  <title>home_provide_img_4</title>
  <defs>
    <path d="M26,0 L252,0 C266.359403,-2.63777963e-15 278,11.6405965 278,26 L278,174 C278,188.359403 266.359403,200 252,200 L0,200 L0,200 L0,26 C-1.75851975e-15,11.6405965 11.6405965,2.63777963e-15 26,0 Z" id="path-1"></path>
  </defs>
  <g id="1.1.0" stroke="none" stroke-width="1" fill="none" fill-rule="evenodd">
    <g id="切图" transform="translate(-1089.000000, -195.000000)">
      <g id="home_provide_img_4" transform="translate(1089.000000, 195.000000)">
        <mask id="mask-2" fill="white">
          <use xlink:href="#path-1"></use>
        </mask>
        <g id="矩形备份-22"></g>
        <g id="编组-39" mask="url(#mask-2)">
          <g transform="translate(85.000000, 33.000000)">
            <path d="M37.0597972,44.4779728 C38.52696,44.0849188 40.1424857,44.2456631 41.5665866,45.0512351 L72.1375139,62.3443097 C73.5796296,63.1600721 74.5545673,64.4831393 74.9650354,65.9627947 C75.3741461,67.437557 75.2225145,69.0678735 74.4138112,70.506496 L43.7415923,122.56008 C42.9109433,123.969701 41.5921435,124.916553 40.1249807,125.309607 C38.657818,125.702661 37.0422922,125.541917 35.6181914,124.736345 L5.04726404,107.44327 C3.60514835,106.627508 2.63021069,105.304441 2.21974256,103.824785 C1.81063185,102.350023 1.96226344,100.719707 2.77096678,99.2810841 L33.4431857,47.2275002 C34.2738347,45.817879 35.5926345,44.8710268 37.0597972,44.4779728 Z" id="形状结合" stroke="#2C78E3" stroke-width="4" fill="#AFF122" fill-rule="evenodd"></path>
            <ellipse id="椭圆形" stroke="none" fill="#2C78E3" fill-rule="evenodd" transform="translate(43.794290, 75.486236) rotate(-510.000000) translate(-43.794290, -75.486236) " cx="43.7942899" cy="75.4862357" rx="13.7645971" ry="13.6246731"></ellipse>
            <path d="M76.132307,50.2424392 C76.132307,38.5432943 66.6482761,29.0592634 54.9491312,29.0592634" id="椭圆形备份-20" stroke="#2C78E3" stroke-width="8" fill="none" stroke-linecap="round" stroke-linejoin="round" transform="translate(65.540719, 39.650851) rotate(-15.000000) translate(-65.540719, -39.650851) "></path>
            <path d="M94.644176,50.6180627 C94.644176,25.4865661 74.2710727,5.11346273 49.1395761,5.11346273" id="椭圆形备份-21" stroke="#2C78E3" stroke-width="8" fill="none" stroke-linecap="round" stroke-linejoin="round" transform="translate(71.891876, 27.865763) rotate(-15.000000) translate(-71.891876, -27.865763) "></path>
            <rect id="矩形" stroke="none" fill="#2C78E3" fill-rule="evenodd" transform="translate(30.325318, 99.580127) rotate(-330.000000) translate(-30.325318, -99.580127) " x="17.8253175" y="94.580127" width="25" height="10" rx="5"></rect>
          </g>
        </g>
      </g>
    </g>
  </g>
</svg>

<svg xmlns="http://www.w3.org/2000/svg" xmlns:xlink="http://www.w3.org/1999/xlink" width="278" height="200" viewBox="0 0 278 200"><title>home_provide_img_4</title><defs><path id="a" d="M26 0h226c14.36 0 26 11.64 26 26v148c0 14.36-11.64 26-26 26H0V26C0 11.64 11.64 0 26 0"/></defs><g fill="none" fill-rule="evenodd"><mask id="b" fill="#fff"><use xlink:href="#a"/></mask><g mask="url(#b)"><g transform="translate(85 33)"><path fill="#aff122" stroke="#2c78e3" stroke-width="4" d="M37.06 44.478a5.98 5.98 0 0 1 4.507.573l30.57 17.293a5.98 5.98 0 0 1 2.828 3.619 5.98 5.98 0 0 1-.551 4.543L43.742 122.56a5.98 5.98 0 0 1-3.617 2.75 5.98 5.98 0 0 1-4.507-.574l-30.57-17.293a5.98 5.98 0 0 1-2.828-3.618 5.98 5.98 0 0 1 .551-4.544l30.672-52.053a5.98 5.98 0 0 1 3.617-2.75Z"/><ellipse cx="43.794" cy="75.486" fill="#2c78e3" rx="13.765" ry="13.625" transform="rotate(210 43.794 75.486)"/><path stroke="#2c78e3" stroke-linecap="round" stroke-linejoin="round" stroke-width="8" d="M78.513 47.14c-3.028-11.3-14.644-18.006-25.944-14.979m47.189 11.793C93.253 19.68 68.3 5.273 44.026 11.777"/><rect width="25" height="10" x="17.825" y="94.58" fill="#2c78e3" rx="5" transform="rotate(30 30.325 99.58)"/></g></g></g></svg>
